X: 4
T: Terry Teehan's
C: Terry Teahan
Z: Fernando Durbán Galnares
S: https://thesession.org/tunes/444#setting47268
R: barndance
M: 4/4
L: 1/8
K: Emin
|:"Em"B2 BA B2 BA|"Bm"dBAF "D"DEFA|"Em"B2 BA B2 BA|"Bm"dBAF "Em"E4:|
"Em"Beef g2 fe|"G"d2 Bd "D"ADFA|"Em"Beef g2 fe|"Bm"dBAF "Em"E4|
"Em"Beef g2 fe|"G"d2 Bd "D"ADFA|"Em"Beed "Bm"BAFA|"Bm"DEED "Em"EFGA||

